icons/critical_care.svg

<svg width="48" height="48" viewBox="0 0 48 48" fill="none" xmlns="http://www.w3.org/2000/svg">
<path fill-rule="evenodd" clip-rule="evenodd" d="M13 13C12.4477 13 12 13.4477 12 14V29.9592C12 30.5115 12.4477 30.9592 13 30.9592H23V33.102H18.4615V35.102H29.5385V33.102H25V30.9592H35C35.5523 30.9592 36 30.5115 36 29.9592V14C36 13.4477 35.5523 13 35 13H13ZM22.9071 15.694L19.504 21.679H13.8462V23.6663H20.6789L22.298 20.8188L24.1894 27.3674L28.6184 21.7342H33.1494C33.7042 21.7342 34.1539 21.2893 34.1539 20.7406C34.1539 20.1918 33.7042 19.7469 33.1494 19.7469H27.6358L25.0336 23.0566L22.9071 15.694Z" fill="black"/>
<path fill-rule="evenodd" clip-rule="evenodd" d="M9 6C7.34315 6 6 7.34315 6 9V39C6 40.6569 7.34315 42 9 42H39C40.6569 42 42 40.6569 42 39V9C42 7.34315 40.6569 6 39 6H9ZM40 9C40 8.44771 39.5523 8 39 8H9C8.44771 8 8 8.44772 8 9V39C8 39.5523 8.44772 40 9 40H39C39.5523 40 40 39.5523 40 39V9Z" fill="black"/>
</svg>

<svg
  xmlns="http://www.w3.org/2000/svg"
  width="24"
  height="24"
  viewBox="0 0 24 24"
  fill="none"
  stroke="currentColor"
  stroke-width="2"
  stroke-linecap="round"
  stroke-linejoin="round"
>
  <path
    fill-rule="evenodd"
    d="M13 13a1 1 0 0 0-1 1v15.96a1 1 0 0 0 1 1h10v2.142h-4.538v2h11.077v-2H25v-2.143h10a1 1 0 0 0 1-1V14a1 1 0 0 0-1-1zm9.907 2.694-3.403 5.985h-5.658v1.987h6.833l1.619-2.847 1.891 6.548 4.43-5.633h4.53a1 1 0 0 0 1.005-.993 1 1 0 0 0-1.005-.994h-5.513l-2.602 3.31z"
    clip-rule="evenodd"
  />
  <path
    fill-rule="evenodd"
    d="M9 6a3 3 0 0 0-3 3v30a3 3 0 0 0 3 3h30a3 3 0 0 0 3-3V9a3 3 0 0 0-3-3zm31 3a1 1 0 0 0-1-1H9a1 1 0 0 0-1 1v30a1 1 0 0 0 1 1h30a1 1 0 0 0 1-1z"
    clip-rule="evenodd"
  />
</svg>
